svgs/sharp-regular/square-parking.svg

<svg xmlns="http://www.w3.org/2000/svg" viewBox="0 0 448 512"><!--! Font Awesome Pro 6.6.0 by @fontawesome - https://fontawesome.com License - https://fontawesome.com/license (Commercial License) Copyright 2024 Fonticons, Inc. --><path d="M48 80l0 352 352 0 0-352L48 80zM0 32l48 0 352 0 48 0 0 48 0 352 0 48-48 0L48 480 0 480l0-48L0 80 0 32zm160 96l88 0c53 0 96 43 96 96s-43 96-96 96l-64 0 0 64-48 0 0-64 0-48 0-120 0-24 24 0zm88 144c26.5 0 48-21.5 48-48s-21.5-48-48-48l-64 0 0 96 64 0z"/></svg>

<svg xmlns="http://www.w3.org/2000/svg" viewBox="0 0 448 512"><!--! Font Awesome Pro 6.4.2 by @fontawesome - https://fontawesome.com License - https://fontawesome.com/license (Commercial License) Copyright 2023 Fonticons, Inc. --><path d="M48 80V432H400V80H48zM0 32H48 400h48V80 432v48H400 48 0V432 80 32zm160 96h88c53 0 96 43 96 96s-43 96-96 96H184v40 24H136V360 320 272 152 128h24zm88 144c26.5 0 48-21.5 48-48s-21.5-48-48-48H184v96h64z"/></svg>
